mockup/templates/main/build/images/GROHE CoolTouch.svg

<svg xmlns="http://www.w3.org/2000/svg" width="48" height="48" viewBox="0 0 48 48">
  <g fill="none" fill-rule="evenodd">
    <rect width="48" height="48" fill="#132D52" rx="8"/>
    <path fill="#FFF" d="M17.7952,47.0416 L17.7984,40.9232 C17.7536,39.7632 17.1504,38.7296 16.3184,38.0736 C13.7456,36.2192 12.0384,33.224 12,29.864 L12,20.6736 C12,19.5584 12.7536,18.6544 13.6832,18.6544 C14.6128,18.6544 15.3648,19.5584 15.3648,20.6736 L15.368,28.4704 C15.368,28.9168 15.6944,29.2784 16.0992,29.2784 C16.504,29.2784 16.8304,28.9168 16.8304,28.4368 L16.8304,21.5408 L16.8304,8.7536 C16.8304,7.6384 17.584,6.7344 18.5136,6.7344 C19.4432,6.7344 20.1968,7.6384 20.1968,8.7536 L20.1984,20.1088 C20.1984,20.5552 20.5264,20.9152 20.928,20.9152 C21.3328,20.9152 21.6608,20.5552 21.6608,20.0752 L21.6608,19.3344 L21.6608,7.0064 C21.6608,5.8928 22.4544,5 23.4336,5 C24.4096,5 25.208,5.8704 25.208,6.984 L25.2496,19.176 C25.2496,19.6208 25.5776,19.9824 25.9808,19.9824 C26.384,19.9824 26.712,19.6208 26.712,19.1424 L26.712,9.776 C26.712,8.6592 27.5056,7.76 28.4832,7.76 C29.4624,7.76 30.256,8.6592 30.256,9.776 L30.2064,21.5504 L30.208,21.76 C30.208,22.2048 30.536,22.5664 30.9392,22.5664 C31.344,22.5664 31.672,22.2048 31.6752,21.7056 L31.6752,14.6704 C31.6752,13.5568 32.4656,12.6544 33.448,12.6544 C34.424,12.6544 35.216,13.5568 35.216,14.6704 L35.216,22.8784 L35.2176,29.84 C35.1808,33.1904 33.44,36.1776 30.9616,38.04 C30.1312,38.6976 29.4816,39.8 29.4336,40.9616 L29.4448,47.0416 L17.7952,47.0416 Z"/>
    <path fill="#132D52" d="M26.81872 31.32704C26.81872 30.93024 27.14032 30.60704 27.53872 30.60704 27.93712 30.60704 28.25872 30.93024 28.25872 31.32704 28.25872 31.72384 27.93712 32.04704 27.53872 32.04704 27.14032 32.04704 26.81872 31.72384 26.81872 31.32704M32.1048 34.70528L30.732 34.70528C30.2344 34.70528 29.9608 34.62848 29.7496 34.43008 29.4824 34.19488 29.332 33.71648 29.332 33.10688 29.332 32.58208 29.4488 32.12448 29.6312 31.87648 29.8376 31.62528 30.1448 31.51648 30.6856 31.51648L32.1048 31.51648 32.1048 30.83328 30.6088 30.83328C30.0632 30.83328 29.6184 30.92288 29.3256 31.09728 28.7656 31.42688 28.4248 32.19968 28.4248 33.13568 28.4248 33.88448 28.636 34.52128 29.0184 34.90368 29.3656 35.25088 29.8104 35.38848 30.6152 35.38848L32.1048 35.38848 32.1048 34.70528zM17.45392 34.70368L19.37232 34.70368C19.73872 34.70368 19.93072 34.66208 20.06192 34.54528 20.19312 34.43488 20.26192 34.27648 20.26192 34.06848 20.26192 33.81408 20.15952 33.60768 19.97872 33.50368 19.84752 33.42688 19.63472 33.39328 19.31632 33.39328L17.90192 33.39328 17.90192 32.70368 19.37232 32.70368C19.77872 32.70368 19.93072 32.67488 20.06192 32.57248 20.19952 32.46208 20.27632 32.28928 20.27632 32.08928 20.27632 31.84768 20.17232 31.65408 19.98672 31.56448 19.86832 31.50208 19.70352 31.48128 19.40752 31.48128L17.45392 31.48128 17.45392 30.79168 19.52432 30.79168C20.06832 30.79168 20.34512 30.83328 20.57232 30.95008 20.94512 31.14368 21.18032 31.56448 21.18032 32.03328 21.18032 32.50368 20.96592 32.80608 20.45552 33.04768 20.93872 33.24128 21.18032 33.60768 21.18032 34.14528 21.18032 34.59328 20.98032 34.95968 20.62032 35.18048 20.33072 35.35328 20.08272 35.39328 19.36592 35.39328L17.45392 35.39328 17.45392 34.70368zM22.9696 31.53024C22.7552 31.61984 22.6384 31.81344 22.6384 32.06944 22.6384 32.37184 22.7632 32.55904 23.0256 32.63264 23.1488 32.66944 23.5008 32.69664 23.888 32.69664 24.3712 32.69664 24.6528 32.66944 24.8048 32.60064 25.0192 32.50144 25.1232 32.33184 25.1232 32.07584 25.1232 31.77824 24.9776 31.57984 24.7088 31.49664 24.5696 31.45504 24.24 31.42624 23.9008 31.42624 23.4736 31.42624 23.128 31.46144 22.9696 31.53024M22.9552 33.46944C22.7424 33.57184 22.624 33.77184 22.624 34.04864 22.624 34.58784 22.9344 34.76064 23.9008 34.76064 24.8128 34.76064 25.136 34.57984 25.136 34.06304 25.136 33.74624 24.992 33.53184 24.7088 33.43424 24.5632 33.38624 24.2256 33.35264 23.88 33.35264 23.4384 33.35264 23.1152 33.39424 22.9552 33.46944M21.7216 32.02144C21.7216 31.49024 21.9904 31.10144 22.4864 30.91744 22.7696 30.81344 23.2592 30.75744 23.9296 30.75744 24.688 30.75744 25.1424 30.82784 25.4336 30.97824 25.8128 31.17984 26.04 31.57024 26.04 32.02784 26.04 32.52384 25.8256 32.82784 25.3152 33.05504 25.5648 33.15904 25.6736 33.22784 25.792 33.35904 25.9568 33.53824 26.0544 33.80704 26.0544 34.09024 26.0544 34.62144 25.7504 35.06304 25.2464 35.25664 24.9504 35.37184 24.5216 35.42944 23.9296 35.42944 23.2176 35.42944 22.7696 35.37184 22.4656 35.24224 21.9824 35.04224 21.7072 34.63424 21.7072 34.13824 21.7072 33.85504 21.8032 33.57984 21.976 33.38624 22.08 33.26944 22.1824 33.19264 22.432 33.05504 21.9136 32.80704 21.7216 32.52384 21.7216 32.02144"/>
  </g>
</svg>

<svg xmlns="http://www.w3.org/2000/svg" width="48" height="48"><g fill="none" fill-rule="evenodd"><rect width="48" height="48" fill="#132D52" rx="8"/><path fill="#FFF" d="M17.795 47.042l.003-6.119c-.044-1.16-.648-2.193-1.48-2.85-2.572-1.854-4.28-4.849-4.318-8.209v-9.19c0-1.116.754-2.02 1.683-2.02.93 0 1.682.904 1.682 2.02l.003 7.796c0 .447.326.808.731.808.405 0 .731-.361.731-.841V8.754c0-1.116.754-2.02 1.684-2.02.93 0 1.683.904 1.683 2.02l.001 11.355c0 .446.328.806.73.806.405 0 .733-.36.733-.84V7.006c0-1.113.793-2.006 1.773-2.006.976 0 1.774.87 1.774 1.984l.042 12.192c0 .445.328.806.73.806.404 0 .732-.361.732-.84V9.776c0-1.117.794-2.016 1.771-2.016.98 0 1.773.9 1.773 2.016l-.05 11.774.002.21c0 .445.328.806.731.806.405 0 .733-.361.736-.86V14.67c0-1.113.79-2.016 1.773-2.016.976 0 1.768.903 1.768 2.016v8.208l.002 6.962c-.037 3.35-1.778 6.338-4.256 8.2-.83.658-1.48 1.76-1.528 2.922l.01 6.08H17.796z"/><path fill="#132D52" d="M26.819 31.327a.72.72 0 1 1 1.44 0 .72.72 0 0 1-1.44 0m5.286 3.378h-1.373c-.498 0-.771-.077-.982-.275-.268-.235-.418-.714-.418-1.323 0-.525.117-.983.3-1.23.206-.252.513-.36 1.054-.36h1.419v-.684h-1.496c-.546 0-.99.09-1.283.264-.56.33-.901 1.103-.901 2.039 0 .748.211 1.385.593 1.768.348.347.792.484 1.597.484h1.49v-.683zm-14.651-.001h1.918c.367 0 .559-.042.69-.159.131-.11.2-.269.2-.477 0-.254-.102-.46-.283-.564-.131-.077-.344-.11-.663-.11h-1.414v-.69h1.47c.407 0 .559-.03.69-.132a.604.604 0 0 0 .214-.483c0-.241-.104-.435-.29-.525-.118-.062-.282-.083-.578-.083h-1.954v-.69h2.07c.544 0 .821.042 1.048.16.373.193.608.613.608 1.082 0 .47-.214.773-.724 1.015.483.193.724.56.724 1.097 0 .448-.2.815-.56 1.035-.29.173-.537.213-1.254.213h-1.912v-.69zm5.516-3.174c-.215.09-.332.283-.332.54 0 .302.125.489.388.563.123.036.475.064.862.064.483 0 .765-.028.917-.096.214-.1.318-.27.318-.525 0-.298-.145-.496-.414-.58-.14-.041-.469-.07-.808-.07-.427 0-.773.035-.931.104m-.015 1.94c-.213.102-.331.302-.331.579 0 .539.31.712 1.277.712.912 0 1.235-.181 1.235-.698 0-.317-.144-.531-.427-.629-.146-.048-.483-.081-.829-.081-.442 0-.765.041-.925.116m-1.233-1.448c0-.53.268-.92.764-1.104.284-.104.773-.16 1.444-.16.758 0 1.212.07 1.504.221.379.202.606.592.606 1.05 0 .496-.214.8-.725 1.027.25.104.359.173.477.304.165.18.262.448.262.731 0 .531-.304.973-.808 1.167-.296.115-.724.172-1.316.172-.712 0-1.16-.057-1.464-.187-.484-.2-.759-.608-.759-1.104 0-.283.096-.558.269-.752.104-.117.206-.193.456-.331-.518-.248-.71-.531-.71-1.034"/></g></svg>
